!!!CDT: ~1535-1592/07/01
!!!PTL: Il sesto libro de madrigli a cinque voci
!!!PPP: Venice
!!!PPR: Ricciardo Amadino
!!!PDT: 1606
!!!PUB-format:
!!!RISM: I 59
!!!rime: 26
!!!AGN: Madrigal
!!!SCT: Trm0026a
!!!SCA: Trm0026a
!!!original-voices: 5
!!!extant-voices: 1
!!!complete: N
!!!final: E?
!!!COM: Ingegneri, Marco Antonio
!!!OTL: Se 'l mio core è con voi come desia
**kern	**text
*part1	*part1
*staff1	*staff1
*I"Canto	*
*I'C	*
*oclefC1	*
*clefG2	*
*k[]	*
*omet(C)	*
*M4/2	*
=1	=1
2.g#X	Se'l
4a	mio
2b	cor
4cc	è
4a	con
=2	=2
2g#X	voi,
2a	co-
4a	-me
4b	de-
2cc	si-
=3	=3
2b	-a,
4r	.
4gnXi	Do-
4f#X	-v'è
2b	l'a-
8a	-ni-
8g	-ma
=4	=4
2f#X	mi-
2g#X	-a,
4r	.
4e	Do-
2a	-v'è
=5	=5
4ee	l'a-
8dd	-ni-
8cc	-ma
2b	mi-
2a	-a?
2cc	Cre-
=6	=6
1a	-do
4r	.
2dd	sia
[4cc	col
=7	=7
4cc]	.
4b	pen-
2a	-sie-
2g	-r'e'l
4d	pen-
4f	-sier
=8	=8
8cL	va-
8d	.
8e	.
8fJ	.
8gL	.
16f	.
16e	.
8d	.
8eJ	.
2f	.
4e	-go
4g	È
=9	=9
4a	con
4b	la
4.cc	bel-
8b	-l'i-
2a	-ma-
2g	-go;
=10	=10
4cc	E
4a	l'i-
4dd	-ma-
8cc	-gi-
8a	-ne
2b	bel-
4cc	-la
4g	Del-
=11	=11
4b	-la
4.cc	vo-
8dd	-stra
4ee	bel-
2dd	-lez-
4g	-za,
4g	Del-
=12	=12
4a	-la
4.b	vo-
8a	-stra
4g	bel-
2dd	-lez-
4g	-z'è
4cc	nel-
=13	=13
4b	-la
2cc	men-
4b	.
2cc	-te
2r	.
=14	=14
0r	.
=15	=15
2r	.
4r	.
2g	Vi-
4a	-v'e
8fL	ve-
8g	.
8a	.
8bJ	.
=16	=16
4cc	.
8cL	-r'e
8dJ	.
8eL	.
8fJ	.
2g	.
4e	pre-
2d	-sen-
=17	=17
4c	-te
4g	E
4e	vi
4.f	spi-
4e	-r'e
8e	fa-
2a	-vel-
=18	=18
1g	-la:
1r	.
=19	=19
1r	.
2g	Ma
[2e	pur
=20	=20
2e]	.
4r	.
2a	sen-
2g	-z'il
4f	mio
=21	=21
4e	co-
4a	-r'è
4.a	la
8g	mia
2f	vi-
2e	-ta
=22	=22
4r	.
2e	Do-
2f	-len-
2e	-te e
8d	sbi-
8c	-go-
=23	=23
4B	-ti-
4A	-ta,
2r	.
2d	Do-
[2a	-len-
=24	=24
4a]	.
4A	-te e
4.c	sbi-
8d	-go-
1e	-ti-
=25	=25
2e	-ta,
2r	.
1r	.
=26	=26
2b	Do-
2.cc	-len-
2b	-te e
8a	sbi-
8g	-go-
=27	=27
4f#X	-ti-
4g#X	-ta,
2r	.
2r	.
4r	.
4A	e
=28	=28
4.c	sbi-
8d	-go-
2e	-ti-
1el	-ta.
==	==
*-	*-
!!!RDF**kern: i = editorial accidental
!!!RDF**kern: l = terminal long
!!!ENC: Emiliano Ricciardi
!!!END: 2018
!!!EED: Ricciardi, Emiliano
!!!EEV: 2018/09/18
!!!YEC: Copyright 2018 Emiliano Ricciardi, All Rights Reserved
!!!ONB: Translated from MusicXML on 2018/09/18 and edited by Craig Stuart Sapp
!!@@BEGIN:	VERSEDATA
!!@SOLERTI:	26
!!@CATALOGNUM:	Trm0026
!!@LAST_MODIFIED: 2020/07/12
!!@TITLE:		Se 'l mio core è con voi, come desia
!!@GENRE:		madrigale
!!@MANUSRC:	C, E<sub>1</sub>, F<sub>2</sub>, V<sub>13/E1</sub>
!!@PRINTSRC:	27, 48, 54, 70, 141, 145, 166, 169
!!@@BEGIN:	VERSES
!!@ABOUTIT:	A la sua donna, nel soggetto medesimo. ("Ne la lontananza de la sua donna dice di non poter avere alcun piacer lontano da lei se non quello ch'egli sente nel patir di lei." <i>Rime</i> 23-25)
!!@ABOUTEN:	To his lady, on the same subject. ("In the absence of his lady, he he experiences no pleasure away from her but the one he feels in languishing for her." <i>Rime<i/> 23-25)
!!@EDITOR:	Solerti, Angelo
!!@EDITION_TITLE: Le Rime di Torquato Tasso
!!@EDITION_LOC:	Bologna
!!@EDITION_PUB:	Romagnoli-Dall’Acqua
!!@EDITION_DATE:  1898-1902
!!@EDITION_VOL:	2
!!@EDITION_PAGE:  36-37
!!@TRANSLATOR:	Emiliano Ricciardi and Amyrose McCue Gill
!!@VERSE:
!!	Se 'l mio core è con voi, come desia,
!!	Dov'è l'anima mia?
!!	Credo sia col pensiero: e 'l pensier vago
!!	È con la bella imago;
!!	E l'imagine bella
!!	De la vostra bellezza è ne la mente
!!	Viva e vera e presente
!!	E vi spira e favella:
!!	Ma pur senza il mio core è la mia vita
!!	Dolente e sbigottita.
!!@TVERSE:
!!	If my heart is with you, as it desires,
!!	Where is my soul?
!!	I believe it is with thought: and the wandering thought
!!	Is with the beautiful image;
!!	And the beautiful image
!!	Of your beauty is in the mind
!!	Alive and true and present
!!	And it breathes and speaks of you:
!!	Yet still, without my heart, my life is
!!	Sorrowful and stunned.
!!@@END:		VERSES
!!@OTHER_CRIT_ED:   Torquato Tasso, <i>Rime d’amore (secondo il codice
!!		Chigiano L VIII 302)</i>, eds. Franco Gavazzeni and
!!		Vercingetorige Martignone, vol. 4 of <i>Edizione
!!		Nazionale delle opere di Torquato Tasso</i>
!!		(Alessandria: Edizioni Dell’Orso, 2004), 16.
!!@ATTRIBUTION_ABOUT:	 Secure
!!		<br>
!!		Among other authoritative sources (see Literary
!!		Sources), this poem appears, albeit erased, in the autograph Chigiano
!!		L.VIII.302 (Biblioteca Vaticana, Rome), compiled
!!		around 1584&ndash;85.
!!@DATING:
!!@DEDICATEE:	Bendidio, Lucrezia
!!@COMMENTARY:
!!@@END:		VERSEDATA
!!@@BEGIN:	SETTING
!!@CATALOGNUM:	Trm0026a
!!@RIMETITLE:	Se 'l mio core è con voi come desia
!!@SOLERTI:	26
!!@COMPOSER:	Ingegneri, Marco Antonio
!!@PRINCEPSTITLE:	Il sesto libro de madrigli a cinque voci
!!@PRINCEPSLOC:	Venetia
!!@NORMLOC:	Venice
!!@NORMPUB:	Ricciardo Amadino
!!@NORMPUBSHORT:	Amadino
!!@PRINCEPSPUB:	Amadino
!!@PRINCEPSYEAR:	1606
!!@PRINCEPSRISM:	I 59
!!@REPRINTS:	
!!@OVOICES:	5
!!@EXTANTVOICES:	1
!!@PARTBOOKS:	
!!@EXTPARTBOOKS:	
!!@OCLEFS:	C1
!!@OMENSURATION:	C
!!@OKEYSIG:	-
!!@FINAL:	E?
!!@TIMPEDITOR:	Ricciardi, Emiliano
!!@NOTE:		
!!@@END:		SETTING
